src/images/icons/v2/content.svg

<?xml version="1.0" encoding="UTF-8" standalone="no"?>
<svg
   xmlns:dc="http://purl.org/dc/elements/1.1/"
   xmlns:cc="http://creativecommons.org/ns#"
   xmlns:rdf="http://www.w3.org/1999/02/22-rdf-syntax-ns#"
   xmlns:svg="http://www.w3.org/2000/svg"
   xmlns="http://www.w3.org/2000/svg"
   xmlns:sodipodi="http://sodipodi.sourceforge.net/DTD/sodipodi-0.dtd"
   xmlns:inkscape="http://www.inkscape.org/namespaces/inkscape"
   width="512"
   height="512"
   enable-background="new 0 0 60 60"
   version="1.1"
   viewBox="0 0 60 60"
   id="svg24"
   sodipodi:docname="011-content.svg"
   inkscape:version="0.92.4 (5da689c313, 2019-01-14)">
  <defs
     id="defs28" />
  <sodipodi:namedview
     pagecolor="#ffffff"
     bordercolor="#666666"
     borderopacity="1"
     objecttolerance="10"
     gridtolerance="10"
     guidetolerance="10"
     inkscape:pageopacity="0"
     inkscape:pageshadow="2"
     inkscape:window-width="1606"
     inkscape:window-height="1131"
     id="namedview26"
     showgrid="false"
     showguides="true"
     inkscape:guide-bbox="true"
     inkscape:zoom="1.3037281"
     inkscape:cx="188.86281"
     inkscape:cy="200.73322"
     inkscape:window-x="0"
     inkscape:window-y="0"
     inkscape:window-maximized="0"
     inkscape:current-layer="svg24">
    <sodipodi:guide
       position="16.449221,33.617534"
       orientation="1,0"
       id="guide835"
       inkscape:locked="false" />
    <sodipodi:guide
       position="22.157011,27.055823"
       orientation="0,1"
       id="guide837"
       inkscape:locked="false" />
    <sodipodi:guide
       position="22.965989,15.100924"
       orientation="0,1"
       id="guide839"
       inkscape:locked="false" />
  </sodipodi:namedview>
  <metadata
     id="metadata2">
    <rdf:RDF>
      <cc:Work
         rdf:about="">
        <dc:format>image/svg+xml</dc:format>
        <dc:type
           rdf:resource="http://purl.org/dc/dcmitype/StillImage" />
      </cc:Work>
    </rdf:RDF>
  </metadata>
  <path
     d="m41.328 59h-22.656c-3.696 0-6.672-2.989-6.672-6.702v-44.596c0-3.713 2.976-6.702 6.672-6.702h22.656c3.696 0 6.672 2.989 6.672 6.702v44.645c-.048 3.664-3.024 6.653-6.672 6.653z"
     fill="#fff"
     id="path4" />
  <ellipse
     cx="30"
     cy="53.938"
     rx="2.208"
     ry="2.218"
     fill="#fff"
     id="ellipse6" />
  <path
     d="m30 57.155c-1.769 0-3.208-1.443-3.208-3.218s1.439-3.217 3.208-3.217 3.208 1.443 3.208 3.218-1.439 3.217-3.208 3.217zm0-4.435c-.666 0-1.208.546-1.208 1.218s.542 1.218 1.208 1.218 1.208-.546 1.208-1.218-.542-1.218-1.208-1.218z"
     fill="#43484a"
     id="path8" />
  <path
     d="m34.752 6.966h-9.504c-.552 0-1-.448-1-1s.448-1 1-1h9.504c.552 0 1 .448 1 1s-.448 1-1 1z"
     fill="#43484a"
     id="path10" />
  <path
     d="m41.328 0h-22.656c-4.231 0-7.672 3.455-7.672 7.702v44.597c0 4.246 3.441 7.701 7.672 7.701h22.656c4.175 0 7.617-3.428 7.672-7.653v-44.645c0-4.247-3.441-7.702-7.672-7.702zm-28.328 7.702c0-3.144 2.544-5.702 5.672-5.702h22.656c3.128 0 5.672 2.558 5.672 5.702v2.471h-34zm34 44.632c-.041 3.124-2.585 5.666-5.672 5.666h-22.656c-3.128 0-5.672-2.558-5.672-5.701v-2.52h34zm-34-4.555v-35.606h34v35.606z"
     fill="#43484a"
     id="path12" />
  <path
     d="m17.137 16.539c-0.38831 3.9e-5 -0.70309 0.31482-0.70312 0.70313v10.748c3.9e-5 0.38831 0.31482 0.70309 0.70312 0.70312h25.68c0.38831-3.9e-5 0.70309-0.31482 0.70312-0.70312v-10.748c-3.8e-5 -0.38831-0.31482-0.70309-0.70312-0.70313z"
     color="#000000"
     color-rendering="auto"
     dominant-baseline="auto"
     enable-background="accumulate"
     fill="#ccf084"
     image-rendering="auto"
     shape-rendering="auto"
     solid-color="#000000"
     style="font-feature-settings:normal;font-variant-alternates:normal;font-variant-caps:normal;font-variant-ligatures:normal;font-variant-numeric:normal;font-variant-position:normal;isolation:auto;mix-blend-mode:normal;shape-padding:0;text-decoration-color:#000000;text-decoration-line:none;text-decoration-style:solid;text-indent:0;text-orientation:mixed;text-transform:none;white-space:normal"
     id="path14" />
  <path
     d="m42.816 35.036h-11.501c-0.552 0-1-0.447-1-1s0.448-1 1-1h11.501c0.552 0 1 0.447 1 1s-0.448 1-1 1z"
     fill="#c2e7ee"
     id="path16" />
  <path
     d="m42.816 39.942h-11.501c-0.552 0-1-0.447-1-1s0.448-1 1-1h11.501c0.552 0 1 0.447 1 1s-0.448 1-1 1z"
     fill="#c2e7ee"
     id="path18" />
  <path
     d="m42.816 44.85h-11.501c-0.552 0-1-0.447-1-1s0.448-1 1-1h11.501c0.552 0 1 0.447 1 1s-0.448 1-1 1z"
     fill="#c2e7ee"
     id="path20" />
  <path
     d="m 22.754591,32.944177 c -0.295065,-0.0036 -0.566034,0.162375 -0.696972,0.426813 l -1.507448,3.056475 -3.372975,0.489163 c -0.629719,0.09134 -0.881078,0.865281 -0.425217,1.309217 l 2.440989,2.378621 -0.577083,3.35857 c -0.107907,0.62741 0.551056,1.105828 1.114176,0.808872 l 3.014896,-1.585775 3.016452,1.585775 c 0.563136,0.296922 1.222131,-0.181462 1.114176,-0.808872 l -0.577083,-3.35857 2.440988,-2.378621 c 0.455869,-0.44392 0.204503,-1.217876 -0.425216,-1.309217 L 24.941299,36.427465 23.433851,33.37099 C 23.30572,33.112233 23.04319,32.947303 22.75446,32.944177 Z"
     dominant-baseline="auto"
     style="color:#000000;font-variant-ligatures:normal;font-variant-position:normal;font-variant-caps:normal;font-variant-numeric:normal;font-variant-alternates:normal;font-feature-settings:normal;text-indent:0;text-decoration:none;text-decoration-line:none;text-decoration-style:solid;text-decoration-color:#000000;text-transform:none;text-orientation:mixed;dominant-baseline:auto;white-space:normal;shape-padding:0;isolation:auto;mix-blend-mode:normal;solid-color:#000000;fill:#f3aabb;stroke-width:0.81846464;color-rendering:auto;image-rendering:auto;shape-rendering:auto;enable-background:accumulate"
     id="path22"
     inkscape:connector-curvature="0" />
</svg>

<svg xmlns="http://www.w3.org/2000/svg" viewBox="0 0 60 60"><path d="M41.328 59H18.672C14.976 59 12 56.011 12 52.298V7.702C12 3.989 14.976 1 18.672 1h22.656C45.024 1 48 3.989 48 7.702v44.645C47.952 56.011 44.976 59 41.328 59z" fill="#fff"/><ellipse cx="30" cy="53.938" rx="2.208" ry="2.218" fill="#fff"/><path d="M30 57.155c-1.769 0-3.208-1.443-3.208-3.218S28.231 50.72 30 50.72s3.208 1.443 3.208 3.218-1.439 3.217-3.208 3.217zm0-4.435c-.666 0-1.208.546-1.208 1.218s.542 1.218 1.208 1.218 1.208-.546 1.208-1.218S30.666 52.72 30 52.72zM34.752 6.966h-9.504c-.552 0-1-.448-1-1s.448-1 1-1h9.504c.552 0 1 .448 1 1s-.448 1-1 1z" fill="#43484a"/><path d="M41.328 0H18.672C14.441 0 11 3.455 11 7.702v44.597C11 56.545 14.441 60 18.672 60h22.656c4.175 0 7.617-3.428 7.672-7.653V7.702C49 3.455 45.559 0 41.328 0zM13 7.702C13 4.558 15.544 2 18.672 2h22.656C44.456 2 47 4.558 47 7.702v2.471H13zm34 44.632C46.959 55.458 44.415 58 41.328 58H18.672C15.544 58 13 55.442 13 52.299v-2.52h34zm-34-4.555V12.173h34v35.606z" fill="#43484a"/><path d="M17.137 16.539c-.38831.00004-.70309.31482-.70312.70313v10.748c.00004.38831.31482.70309.70312.70312h25.68c.38831-.00004.70309-.31482.70312-.70312v-10.748c-.00004-.38831-.31482-.70309-.70312-.70313z" color="#000" fill="#ccf084" style="font-feature-settings:normal;font-variant-alternates:normal;font-variant-caps:normal;font-variant-ligatures:normal;font-variant-numeric:normal;font-variant-position:normal;isolation:auto;mix-blend-mode:normal;shape-padding:0;text-decoration-color:#000;text-decoration-line:none;text-decoration-style:solid;text-indent:0;text-orientation:mixed;text-transform:none;white-space:normal"/><path d="M42.816 35.036H31.315c-.552 0-1-.447-1-1s.448-1 1-1h11.501c.552 0 1 .447 1 1s-.448 1-1 1zM42.816 39.942H31.315c-.552 0-1-.447-1-1s.448-1 1-1h11.501c.552 0 1 .447 1 1s-.448 1-1 1zM42.816 44.85H31.315c-.552 0-1-.447-1-1s.448-1 1-1h11.501c.552 0 1 .447 1 1s-.448 1-1 1z" fill="#c2e7ee"/><path d="M22.7546 32.94418c-.29507-.0036-.56604.16237-.69698.42681l-1.50745 3.05648-3.37297.48916c-.62972.09134-.88108.86528-.42522 1.30922l2.44099 2.37862-.57708 3.35857c-.10791.6274.55105 1.10582 1.11417.80887l3.0149-1.58578 3.01645 1.58578c.56313.29692 1.22213-.18146 1.11417-.80887l-.57708-3.35857 2.44099-2.37862c.45587-.44393.2045-1.21788-.42522-1.30922l-3.37297-.48916-1.50745-3.05648a.76739.76739 0 00-.67939-.42681z" style="font-variant-ligatures:normal;font-variant-position:normal;font-variant-caps:normal;font-variant-numeric:normal;font-variant-alternates:normal;font-feature-settings:normal;text-indent:0;text-decoration-line:none;text-decoration-style:solid;text-decoration-color:#000;text-transform:none;text-orientation:mixed;white-space:normal;shape-padding:0;isolation:auto;mix-blend-mode:normal;solid-color:#000" color="#000" fill="#f3aabb"/></svg>
